Numix/16/mimetypes/application-vnd.coffeescript.svg

<?xml version="1.0" encoding="UTF-8" standalone="no"?>
<svg
   xmlns:dc="http://purl.org/dc/elements/1.1/"
   xmlns:cc="http://creativecommons.org/ns#"
   xmlns:rdf="http://www.w3.org/1999/02/22-rdf-syntax-ns#"
   xmlns:svg="http://www.w3.org/2000/svg"
   xmlns="http://www.w3.org/2000/svg"
   xmlns:sodipodi="http://sodipodi.sourceforge.net/DTD/sodipodi-0.dtd"
   xmlns:inkscape="http://www.inkscape.org/namespaces/inkscape"
   width="16"
   height="16"
   viewBox="0 0 16 16"
   id="svg2"
   version="1.1"
   inkscape:version="0.91 r13725"
   sodipodi:docname="application-vnd.coffeescript.svg">
  <metadata
     id="metadata20">
    <rdf:RDF>
      <cc:Work
         rdf:about="">
        <dc:format>image/svg+xml</dc:format>
        <dc:type
           rdf:resource="http://purl.org/dc/dcmitype/StillImage" />
        <dc:title />
      </cc:Work>
    </rdf:RDF>
  </metadata>
  <defs
     id="defs18" />
  <sodipodi:namedview
     pagecolor="#ffffff"
     bordercolor="#666666"
     borderopacity="1"
     objecttolerance="10"
     gridtolerance="10"
     guidetolerance="10"
     inkscape:pageopacity="0"
     inkscape:pageshadow="2"
     inkscape:window-width="1366"
     inkscape:window-height="704"
     id="namedview16"
     showgrid="false"
     inkscape:zoom="1"
     inkscape:cx="6.4731008"
     inkscape:cy="5.7372233"
     inkscape:window-x="0"
     inkscape:window-y="27"
     inkscape:window-maximized="1"
     inkscape:current-layer="svg2">
    <inkscape:grid
       type="xygrid"
       id="grid3008" />
  </sodipodi:namedview>
  <path
     style="fill:#1f244f;fill-opacity:1"
     d="M 2.667969,-4.461e-4 C 2.324219,-4.461e-4 2,0.3378119 2,0.6964466 L 2,15.303108 C 2,15.641365 2.34375,16 2.667969,16 l 10.664062,0 C 13.65625,16 14,15.641365 14,15.303108 L 14,3.9995537 9.9999996,-4.461e-4 z"
     id="path4-5"
     inkscape:connector-curvature="0"
     sodipodi:nodetypes="ssssssccs" />
  <path
     style="fill:#000000;fill-opacity:0.19599998"
     d="m 10.583223,3.3315847 0.0154,0.01953 0.04005,-0.01953 z m 0.02978,0.667969 3.387,3.664062 0,-3.664062 z"
     id="path6"
     inkscape:connector-curvature="0"
     sodipodi:nodetypes="cccccccc" />
  <path
     style="fill:#ffffff;fill-opacity:0.39200003"
     d="m 9.9999996,-4.461e-4 3.9963964,3.9999998 -3.383784,0 c -0.299099,0 -0.6126124,-0.317117 -0.6126124,-0.616216 z"
     id="path8"
     inkscape:connector-curvature="0"
     sodipodi:nodetypes="ccssc" />
  <g
     style="fill:#ffffff"
     id="g10"
     transform="matrix(1.2999414,0,0,1.2999414,-1.2999414,-2.5992969)">
    <path
       d="M 3,5 3,13 7,13 7,11 5,11 5,7 7,7 7,5 C 5.6666667,5 4.3333333,5 3,5 Z"
       id="path12"
       inkscape:connector-curvature="0"
       sodipodi:nodetypes="ccccccccc"
       transform="matrix(0.76926545,0,0,0.76926545,1.7692654,1.9995493)"
       style="fill:#e6e6e6;fill-opacity:1" />
    <path
       d="m 7.923389,5.8458765 2.307797,0 0,1.5385309 -1.5385318,0 2e-7,0.7692655 1.5385316,0 0,3.8463271 -2.307797,0 0,-1.538531 1.5385309,0 0,-0.7692653 -1.5385309,0 z"
       id="path14"
       inkscape:connector-curvature="0"
       sodipodi:nodetypes="ccccccccccccc"
       style="fill:#e6e6e6;fill-opacity:1" />
  </g>
</svg>

<svg xmlns="http://www.w3.org/2000/svg" viewBox="0 0 16 16">
 <path d="m 2.668 0 c -0.344 0 -0.668 0.338 -0.668 0.697 l 0 14.607 c 0 0.338 0.344 0.697 0.668 0.697 l 10.664 0 c 0.324 0 0.668 -0.359 0.668 -0.697 l 0 -11.304 -4 -4 z" style="fill:#1f244f;fill-opacity:1"/>
 <path d="m 10.583 3.332 0.015 0.02 0.04 -0.02 z m 0.03 0.668 3.387 3.664 0 -3.664 z" style="fill:#000;fill-opacity:0.196"/>
 <path d="m 10 0 3.996 4 -3.384 0 c -0.299 0 -0.613 -0.317 -0.613 -0.616 z" style="fill:#fff;fill-opacity:0.392"/>
 <g transform="matrix(1.2999414,0,0,1.2999414,-1.2999414,-2.5992969)" style="fill:#fff">
  <path d="m 3 5 0 8 4 0 0 -2 -2 0 0 -4 2 0 0 -2 c -1.333 0 -2.667 0 -4 0" transform="matrix(0.76926545,0,0,0.76926545,1.7692654,1.9995493)" style="fill:#e6e6e6;fill-opacity:1"/>
  <path d="m 7.923 5.846 2.308 0 0 1.539 -1.539 0 0 0.769 1.539 0 0 3.846 -2.308 0 0 -1.539 1.539 0 0 -0.769 -1.539 0 z" style="fill:#e6e6e6;fill-opacity:1"/>
 </g>
</svg>
